!!!OTL: UNSER LEBEN SAGEN WEISE
!!!ARE: Europa, Mitteleuropa, Deutschland
!!!SCT: F0792
!!!YEM: Copyright 1995, estate of Helmut Schaffrath.
**kern
*ICvox
*Ivox
*M3/8
*k[f#c#]
*D:
=1
{4a
8a
=2
4a
8f#
=3
4d
8e
=4
4f#
8d}
=5
{4a
8cc#
=6
8ee
8cc#
8a
=7
8g#
8f#
8g#
=8
4a
8r}
=9
{4a
8a
=10
4b
8b
=11
8cc#
8b
8cc#
=12
4dd
8a}
=13
{8gg
8ff#
8ee
=14
4a
8a
=15
8a
8b
8cc#
=16
4dd
8r}
==
!!!AGN: Geselligkeits -, Moral - Lied
!!!ONB: ESAC (Essen Associative Code) Database: FINK
!!!AMT: simple triple
!!!AIN: vox
!!!EED: Helmut Schaffrath
!!!EEV: 1.0
*-
